!!!COM: Claude Goudimel
!!!OMD: Psalm 3: O Seigneur, que de gens
**kern	**kern	**kern	**kern
*part4	*part3	*part2	*part1
*staff4	*staff3	*staff2	*staff1
*I"bassus	*I"tenor	*I"contra	*I"superius
*clefF4	*clefC4	*clefC3	*clefC1
!!LO:TX:omd:t=
*M2/2	*M2/2	*M2/2	*M2/2
*met(c|)	*met(c|)	*met(c|)	*met(c|)
=1	=1	=1	=1
1C	1C	1E	1G
=2	=2	=2	=2
1C	1G	1E	1c
=3	=3	=3	=3
1E	1G	1E	1B
=4	=4	=4	=4
2D	2A	2F#X	2d
2GG	2B	2G	2d
=5	=5	=5	=5
1C	1c	1G	1e
=6	=6	=6	=6
1r	1r	1r	1r
=7	=7	=7	=7
1C	1c	1G	1e
=8	=8	=8	=8
2E	2B	2G	2e
2F	2A	2F	2c
=9	=9	=9	=9
2C	2G	2E	2c
2D	2F	2D	2A
=10	=10	=10	=10
1C	1G	1E	1c
=11	=11	=11	=11
1r	1r	1r	1r
=12	=12	=12	=12
1C	1E	1C	1G
=13	=13	=13	=13
2C	2E	2C	2G
2C	2C	2E	2G
=14	=14	=14	=14
2BB-X	2F	2D	2B-X
2C	2E	[2C	2G
=15	=15	=15	=15
1GG	1D	2C]	1G
.	.	2BB	.
=16	=16	=16	=16
1C	1C	1C	1G
=17	=17	=17	=17
1r	1r	1r	1r
=18	=18	=18	=18
1C	1G	1E	1c
=19	=19	=19	=19
2C	2G	2E	2c
2FF	2A	2F	2c
=20	=20	=20	=20
2C	2G	2E	2c
2D	2F	2D	2A
=21	=21	=21	=21
1AA	1E	1C#X	1A
=22	=22	=22	=22
1r	1r	1r	1r
=23	=23	=23	=23
1C	1E	1C	1G
=24	=24	=24	=24
2GG	2G	2D	2B
2C	2G	2E	2c
=25	=25	=25	=25
2D	2F	2D	2A
2C	2E	2G	2c
=26	=26	=26	=26
1GG	1D	1G	1B
=27	=27	=27	=27
1r	1r	1r	1r
=28	=28	=28	=28
1C	1E	1G	1c
=29	=29	=29	=29
2FF	2F	2A	2c
2C	2E	2G	2c
=30	=30	=30	=30
2C	2C	2E	2G
2C	2E	[2C	2G
=31	=31	=31	=31
1GG	1D	2C]	1G
.	.	2BB	.
=32	=32	=32	=32
1C	1C	1C	1G
=33	=33	=33	=33
1r	1r	1r	1r
=34	=34	=34	=34
1C	1C	1E	1G
=35	=35	=35	=35
2C	2C	2E	2G
2BB	2D	2G	2d
=36	=36	=36	=36
2AA	2E	2A	2c#X
2D	2F	2A	2d
=37	=37	=37	=37
1GG	1G	1B	1d
=38	=38	=38	=38
1r	1r	1r	1r
=39	=39	=39	=39
1G	1G	1G	1d
=40	=40	=40	=40
2D	2A	2F	2d
2G	2B	2G	2d
=41	=41	=41	=41
2C	2c	2G	2e
2D	2A	2F#X	2d
=42	=42	=42	=42
1G	1G	1G	1B
=43	=43	=43	=43
1r	1r	1r	1r
=44	=44	=44	=44
1C	1G	1E	1c
=45	=45	=45	=45
2GG	2G	2D	2B
2C	2G	2E	2c
=46	=46	=46	=46
2FF	2A	2F	2c
2C	2G	2E	2c
=47	=47	=47	=47
1D	1F	1D	1A
=48	=48	=48	=48
1AA	1E	1C#X	1A
=49	=49	=49	=49
1r	1r	1r	1r
=50	=50	=50	=50
1C	1C	1E	1G
=51	=51	=51	=51
2AA	2E	2C	2A
2GG	2G	2D	2B
=52	=52	=52	=52
2C	2G	2E	2c
2D	2F#X	2D	2A
=53	=53	=53	=53
1GG	1G	1D	1B
=54	=54	=54	=54
1r	1r	1r	1r
=55	=55	=55	=55
1C	1G	1E	1c
=56	=56	=56	=56
2F	2A	2F	2c
2A	2c	2c	2f
=57	=57	=57	=57
2G	2c	2G	2d
2G	2B	2G	2d
=58	=58	=58	=58
1C	1c	1G	1e
=59	=59	=59	=59
1r	1r	1r	1r
=60	=60	=60	=60
1C	1c	1G	1e
=61	=61	=61	=61
2F	2A	2F	2c
2C	2G	2E	2c
=62	=62	=62	=62
2D	2F	2D	2A
2C	2E	2G	[2c
=63	=63	=63	=63
1GG	1D	1G	2c]
.	.	.	2B
=64	=64	=64	=64
1C;	1C;	1E;	1c;
==	==	==	==
*-	*-	*-	*-
!!!software: music21 v.9.7.1
!!!software: music21 v.9.1.0
!!!RDF**kern: > = above
!!!RDF**kern: < = below
